icons/Share.svg

<svg width="24" height="24" viewBox="0 0 24 24" fill="none" xmlns="http://www.w3.org/2000/svg">
<path fill-rule="evenodd" clip-rule="evenodd" d="M6.75 12.875C6.86617 12.875 6.97757 12.9211 7.05971 13.0033C7.14186 13.0854 7.188 13.1968 7.188 13.313V17.688H16.813V13.313C16.8133 13.197 16.8595 13.0859 16.9416 13.0039C17.0238 12.922 17.135 12.876 17.251 12.876H18.564C18.6802 12.876 18.7916 12.9221 18.8737 13.0043C18.9559 13.0864 19.002 13.1978 19.002 13.314V19.439C19.002 19.555 18.956 19.6662 18.8741 19.7484C18.7921 19.8305 18.681 19.8767 18.565 19.877H5.438C5.3804 19.877 5.32336 19.8656 5.27015 19.8436C5.21695 19.8215 5.16862 19.7891 5.12793 19.7484C5.08725 19.7076 5.05501 19.6592 5.03305 19.6059C5.0111 19.5527 4.99987 19.4956 5 19.438V13.313C5.00027 13.197 5.04653 13.0859 5.12864 13.0039C5.21075 12.922 5.32201 12.876 5.438 12.876H6.75V12.875ZM11.617 5.159C11.6673 5.1086 11.7271 5.06861 11.7929 5.04133C11.8587 5.01405 11.9293 5 12.0005 5C12.0717 5 12.1423 5.01405 12.2081 5.04133C12.2739 5.06861 12.3337 5.1086 12.384 5.159L13.15 5.925L16.217 8.992C16.3186 9.09379 16.3756 9.23171 16.3756 9.3755C16.3756 9.51929 16.3186 9.65721 16.217 9.759L15.45 10.525C15.3484 10.6265 15.2106 10.6835 15.067 10.6835C14.9234 10.6835 14.7856 10.6265 14.684 10.525L13.084 8.925V14.625C13.084 14.7688 13.0269 14.9068 12.9253 15.0086C12.8237 15.1104 12.6858 15.1677 12.542 15.168H11.458C11.3867 15.168 11.3162 15.1539 11.2504 15.1266C11.1845 15.0993 11.1247 15.0593 11.0744 15.0089C11.0241 14.9585 10.9842 14.8986 10.957 14.8327C10.9298 14.7668 10.9159 14.6963 10.916 14.625V8.925L9.316 10.525C9.26566 10.5754 9.20588 10.6154 9.14008 10.6427C9.07427 10.67 9.00374 10.684 8.9325 10.684C8.86127 10.684 8.79073 10.67 8.72492 10.6427C8.65912 10.6154 8.59934 10.5754 8.549 10.525L7.783 9.759C7.7326 9.70866 7.69261 9.64888 7.66533 9.58308C7.63805 9.51727 7.624 9.44674 7.624 9.3755C7.624 9.30426 7.63805 9.23373 7.66533 9.16792C7.69261 9.10212 7.7326 9.04234 7.783 8.992L10.849 5.925L11.617 5.159Z" fill="black"/>
</svg>

<svg xmlns="http://www.w3.org/2000/svg" viewBox="0 0 24 24">
  <path d="M6.75 12.875a.438.438 0 01.438.438v4.375h9.625v-4.375a.438.438 0 01.438-.437h1.313a.438.438 0 01.438.438v6.125a.438.438 0 01-.437.438H5.438A.44.44 0 015 19.438v-6.125a.438.438 0 01.438-.437H6.75v-.001zm4.867-7.716a.542.542 0 01.767 0l.766.766 3.067 3.067a.543.543 0 010 .767l-.767.766a.542.542 0 01-.766 0l-1.6-1.6v5.7a.543.543 0 01-.542.543h-1.084a.542.542 0 01-.542-.543v-5.7l-1.6 1.6a.542.542 0 01-.767 0l-.766-.766a.542.542 0 010-.767l3.066-3.067.768-.766z"/>
</svg>
